dist/assets/images/icons/star.svg

<svg width="73" height="13" viewBox="0 0 73 13" fill="none" xmlns="http://www.w3.org/2000/svg">
<path d="M6.5 0L7.95934 4.49139H12.6819L8.86126 7.26722L10.3206 11.7586L6.5 8.98278L2.6794 11.7586L4.13874 7.26722L0.318133 4.49139H5.04066L6.5 0Z" fill="#E4EC8C"/>
<path d="M51.5 0L52.9593 4.49139H57.6819L53.8613 7.26722L55.3206 11.7586L51.5 8.98278L47.6794 11.7586L49.1387 7.26722L45.3181 4.49139H50.0407L51.5 0Z" fill="#E4EC8C"/>
<path d="M36.5 0L37.9593 4.49139H42.6819L38.8613 7.26722L40.3206 11.7586L36.5 8.98278L32.6794 11.7586L34.1387 7.26722L30.3181 4.49139H35.0407L36.5 0Z" fill="#E4EC8C"/>
<path d="M21.5 0L22.9593 4.49139H27.6819L23.8613 7.26722L25.3206 11.7586L21.5 8.98278L17.6794 11.7586L19.1387 7.26722L15.3181 4.49139H20.0407L21.5 0Z" fill="#E4EC8C"/>
<path d="M66.5 0L67.9593 4.49139H72.6819L68.8613 7.26722L70.3206 11.7586L66.5 8.98278L62.6794 11.7586L64.1387 7.26722L60.3181 4.49139H65.0407L66.5 0Z" fill="#C6C6C6"/>
</svg>

<svg width="73" height="13" fill="none" xmlns="http://www.w3.org/2000/svg"><path d="M6.5 0l1.46 4.491h4.722l-3.82 2.776 1.459 4.492L6.5 8.983l-3.82 2.776 1.459-4.492-3.82-2.776H5.04L6.5 0zm45 0l1.46 4.491h4.722l-3.82 2.776 1.459 4.492L51.5 8.983l-3.82 2.776 1.459-4.492-3.82-2.776h4.722L51.5 0zm-15 0l1.46 4.491h4.722l-3.82 2.776 1.459 4.492L36.5 8.983l-3.82 2.776 1.459-4.492-3.82-2.776h4.722L36.5 0zm-15 0l1.46 4.491h4.722l-3.82 2.776 1.459 4.492L21.5 8.983l-3.82 2.776 1.459-4.492-3.82-2.776h4.722L21.5 0z" fill="#E4EC8C"/><path d="M66.5 0l1.46 4.491h4.722l-3.82 2.776 1.459 4.492L66.5 8.983l-3.82 2.776 1.459-4.492-3.82-2.776h4.722L66.5 0z" fill="#C6C6C6"/></svg>
